X:1
T:By and By
T:Philip Paul Bliss
T:By and By
T:Public Domain
T:Public Domain
T:Public Domain
C:Philip Paul Bliss
Z:Public Domain
%%score ( 1 2 ) ( 3 4 )
L:1/8
M:9/8
K:G
V:1 treble 
V:2 treble 
V:3 bass 
V:4 bass 
V:1
 ([B,D][G,B,])[B,D] | [DB]3- [DB]2 [DB] ([CA][B,G])[CE] | [CE]3 [B,D]3 (D-[DE])D | %3
w: 1.~By * and|by * we shall * know|Je- sus, by * and|
w: 2.~By * and|by * we shall * be|stand- ing, by * and|
w: 3.~By * and|by! * we say * it|gent- ly, look- * ing|
 [DA]3 [Dc]3 (ce)[Dd] | [DB]6 ([B,D][G,B,])[B,D] | [DB]3- [DB]2 [DB] ([CA][B,G])[CE] | %6
w: oh, by and * by;|ven now * He|looks * and sees * us,|
w: oh, by and * by,|fair heav- * en’s|shin- * ing land- * ing,|
w: our peace- ful * dead,|we do * not|think * of earth * life,|
 [CE]3 [B,D]3 D-[DE]D | [DA]3 [Dc]3 (cB)[CA] | [B,G]6 ||[K:D] ([DF][EG])[^E^G] | %10
w: journey- ing toward * His|home on high. * And|smiles|up- * on|
w: while the riv- * er|mur- murs by, * And|friends|will * round|
w: but of Heaven’s * sweet|life in- stead. * By|by|we * all|
 [FA]3 [Fd]3 ([Fd][Ac])[GB] | [GB]3 [FA]3 ([FA][EG])[DF] | [CE]3 [EG]3 ([EG][GB])[FA] | %13
w: us, say- ing, * “By|and by, oh, * by|and by, Cares * and|
w: us ga- ther, * by|and by, oh, * by|and by, Say- * ing|
w: shall ga- ther, * by|and by, oh, * by|and by, In * the|
 [DF]6 ([DF][EG])[^E^G] | [FA]3 [Fd]3 ([Fd][Ac])[GB] | [GB]3 [FA]3 ([FA][EG])[DF] | %16
w: tri- als * you’ll|be lay- ing * with|your earth- ly * gar-|
w: “Wel- come, * for|the Fa- ther * loves|to have His * child-|
w: life of * God|our Fa- ther * that|shall know no * by|
 [CE]3 [EG]3 ([EG][DF])[CE] | (D3 [=CD]3) |] %18
w: ments by.” * * *||
w: ren nigh.” * * *||
w: and by. * * *||
V:2
 x3 | x9 | x8 D | x6 D2 x | x9 | x9 | x9 | x6 D2 x | x6 ||[K:D] x3 | x9 | x9 | x9 | x9 | x9 | x9 | %16
w: ||by,|E-||||He|||||||||
w: ||by,|At||||our|||||||||
w: ||on|And||||and|||||||||
 x9 | x6 |] %18
w: ||
w: ||
w: ||
V:3
 (G,D,)[G,,G,] | [G,,G,]3- [G,,G,]2 [G,,G,] [G,,G,]2 [G,,G,] | [G,,G,]3 [G,,G,]3 (F,G,)[D,F,] | %3
w: Oh~by * and|oh * sing it soft-|ly, Think- ing * not|
 [D,F,]3 [D,A,]3 (A,C)[D,B,] | G,6 (G,D,)[G,,G,] | [G,,G,]3- [G,,G,]2 [G,,G,] [G,,G,]2 [G,,G,] | %6
w: earth- ly care, * But|by and * by|en * Wait- ing for|
 [G,,G,]3 [G,,G,]3 (F,G,)[D,F,] | [D,F,]3 [D,A,]3 (A,G,)[D,F,] | [G,,G,]6 ||[K:D] (DC)[D,B,] | %10
w: us o- ver * there.||||
 [D,A,]3 [D,A,]3 [D,A,]2 (B,/C/) | [D,D]3 [D,A,]3 [A,,A,]2 [A,,A,] | %12
w: ||
 [A,,A,]3 [A,,A,]3 [A,,A,]2 [A,,A,] | [D,A,]6 (DC)[D,B,] | [D,A,]3 [D,A,]3 [D,A,]2 B,/C/ | %15
w: |||
 [D,D]3 [D,A,]3 [A,,A,]2 [A,,A,] | [A,,A,]3 [A,,A,]3 [A,,A,]2 [A,,G,] | ([D,F,]3 [D,F,]3) |] %18
w: |||
V:4
 G,,2 x | x9 | x6 D,2 x | x6 D,2 x | G,6 G,,2 x | x9 | x6 D,2 x | x6 D,2 x | x6 ||[K:D] D,2 x | %10
w: by,||of|the|of Heav-||||||
 x8 D, | x9 | x9 | x6 D,2 x | x8 D, | x9 | x9 | x6 |] %18
w: ||||||||

